src/assets/outline/CloudSunny.svg

<svg width="24" height="24" viewBox="0 0 24 24"  xmlns="http://www.w3.org/2000/svg">
<path d="M16.6698 20.8299C16.6498 20.8299 16.6398 20.8299 16.6298 20.8299H5.53979C2.59979 20.6199 1.27979 18.3499 1.27979 16.3399C1.27979 14.5399 2.32979 12.5399 4.60979 11.9899C3.60979 8.14995 5.50979 5.45995 7.74979 4.18995C10.3498 2.70995 14.2198 2.69995 16.5698 5.54995C16.5898 5.57995 16.6098 5.60995 16.6298 5.63995C17.3298 6.52995 17.8198 7.59995 18.0998 8.83995C19.3298 9.10995 20.3898 9.76995 21.2198 10.7499C23.1098 12.9799 23.4698 16.8599 20.7698 19.2399C19.6498 20.2699 18.1998 20.8299 16.6698 20.8299ZM11.4898 4.69995C10.4298 4.69995 9.37979 4.98995 8.49979 5.48995C6.07979 6.86995 5.25979 9.42995 6.29979 12.3499C6.37979 12.5799 6.34979 12.8399 6.20979 13.0299C6.06979 13.2199 5.83978 13.3499 5.59978 13.3499C3.65978 13.4899 2.78979 14.9499 2.78979 16.3399C2.78979 17.7299 3.65978 19.1899 5.59978 19.3399H16.6398C17.7998 19.3499 18.9198 18.9199 19.7698 18.1399L19.7798 18.1299C21.8098 16.3499 21.5098 13.4199 20.0798 11.7299C19.3798 10.8999 18.4498 10.3899 17.3798 10.2499C17.0498 10.2099 16.7898 9.95995 16.7398 9.62995C16.5298 8.38995 16.0898 7.34995 15.4298 6.52995C15.4098 6.50995 15.3998 6.47995 15.3798 6.45995C14.3198 5.21995 12.8998 4.69995 11.4898 4.69995Z" />
<path d="M7.25984 13.7599C7.14984 13.7599 7.02984 13.7299 6.92984 13.6799C6.50984 13.4699 6.04984 13.3599 5.57984 13.3499C5.16984 13.3399 4.83984 12.9999 4.83984 12.5899C4.84984 12.1799 5.23984 11.8399 5.59984 11.8499C6.28984 11.8599 6.97984 12.0299 7.58984 12.3399C7.95984 12.5199 8.10984 12.9799 7.92984 13.3499C7.79984 13.6099 7.53984 13.7599 7.25984 13.7599Z" />
<path d="M15.85 10.67C15.57 10.67 15.31 10.52 15.18 10.25C14.99 9.87998 15.15 9.42998 15.52 9.23998C16.14 8.92998 16.83 8.75998 17.51 8.74998C17.91 8.73998 18.27 9.06998 18.27 9.48998C18.28 9.89998 17.95 10.25 17.53 10.25C17.07 10.26 16.6 10.37 16.18 10.58C16.07 10.64 15.96 10.67 15.85 10.67Z" />
<path d="M20.65 11.98C20.44 11.98 20.22 11.89 20.07 11.71C19.38 10.88 18.44 10.37 17.37 10.23C17.04 10.19 16.78 9.94 16.73 9.61C16.52 8.37 16.08 7.33 15.42 6.51C15.31 6.38 15.25 6.21 15.25 6.04C15.25 5.84 15.33 5.64 15.47 5.5C16.27 4.69 17.33 4.25 18.47 4.25C20.81 4.25 22.72 6.16 22.72 8.5C22.72 9.8 22.14 11.01 21.12 11.82C20.98 11.93 20.82 11.98 20.65 11.98ZM18.11 8.84C19.07 9.05 19.94 9.5 20.66 10.16C21.02 9.69 21.22 9.11 21.22 8.5C21.22 6.98 19.99 5.75 18.47 5.75C17.95 5.75 17.45 5.89 17.02 6.17C17.53 6.94 17.89 7.84 18.11 8.84Z" />
</svg>

<?xml version="1.0" encoding="UTF-8"?>
<svg width="24" height="24" viewBox="0 0 24 24" xmlns="http://www.w3.org/2000/svg">
 <path d="m16.67 20.83h-0.04-11.09c-2.94-0.21-4.26-2.48-4.26-4.49 0-1.8 1.05-3.8 3.33-4.35-1-3.84 0.9-6.53 3.14-7.8 2.6-1.48 6.47-1.49 8.82 1.36l0.06 0.09c0.7 0.89 1.19 1.96 1.47 3.2 1.23 0.27 2.29 0.93 3.12 1.91 1.89 2.23 2.25 6.11-0.45 8.49-1.12 1.03-2.57 1.59-4.1 1.59zm-5.18-16.13c-1.06 0-2.11 0.29-2.99 0.79-2.42 1.38-3.24 3.94-2.2 6.86 0.08 0.23 0.05 0.49-0.09 0.68s-0.37001 0.32-0.61001 0.32c-1.94 0.14-2.81 1.6-2.81 2.99s0.86999 2.85 2.81 3h11.04c1.16 0.01 2.28-0.42 3.13-1.2l0.01-0.01c2.03-1.78 1.73-4.71 0.3-6.4-0.7-0.83-1.63-1.34-2.7-1.48-0.33-0.04-0.59-0.28995-0.64-0.61995-0.21-1.24-0.65-2.28-1.31-3.1-0.02-0.02-0.03-0.05-0.05-0.07-1.06-1.24-2.48-1.76-3.89-1.76z"/>
 <path d="m7.2598 13.76c-0.11 0-0.23-0.03-0.33-0.08-0.42-0.21-0.88-0.32-1.35-0.33-0.41-0.01-0.74-0.35-0.74-0.76 0.01-0.41 0.4-0.75 0.76-0.74 0.69 0.01 1.38 0.18 1.99 0.49 0.37 0.18 0.52 0.64 0.34 1.01-0.13 0.26-0.39 0.41-0.67 0.41z"/>
 <path d="m15.85 10.67c-0.28 0-0.54-0.15-0.67-0.42-0.19-0.37002-0.03-0.82002 0.34-1.01 0.62-0.31 1.31-0.48 1.99-0.49 0.4-0.01 0.76 0.32 0.76 0.74 0.01 0.41-0.32 0.76002-0.74 0.76002-0.46 0.01-0.93 0.12-1.35 0.33-0.11 0.06-0.22 0.09-0.33 0.09z"/>
 <path d="m20.65 11.98c-0.21 0-0.43-0.09-0.58-0.27-0.69-0.83-1.63-1.34-2.7-1.48-0.33-0.04-0.59-0.29-0.64-0.62-0.21-1.24-0.65-2.28-1.31-3.1-0.11-0.13-0.17-0.3-0.17-0.47 0-0.2 0.08-0.4 0.22-0.54 0.8-0.81 1.86-1.25 3-1.25 2.34 0 4.25 1.91 4.25 4.25 0 1.3-0.58 2.51-1.6 3.32-0.14 0.11-0.3 0.16-0.47 0.16zm-2.54-3.14c0.96 0.21 1.83 0.66 2.55 1.32 0.36-0.47 0.56-1.05 0.56-1.66 0-1.52-1.23-2.75-2.75-2.75-0.52 0-1.02 0.14-1.45 0.42 0.51 0.77 0.87 1.67 1.09 2.67z"/>
</svg>
